!!!!SEGMENT: pl-kk--kk-i-389--005-004_anonim--missa-no-5-graduale-alleluia-ave-maria.krn
!!!cenid: 17xx:2487
!!!COM: Anonim
!!!COM-rismID: pe30004985
!!!CDT:
!!!CNT:
!!!OPR: [Missa] No. 5.
!!!OTL: Graduale/Alleluia. Ave Maria
!!!OMV: 004
!!!PDT:
!!!AGN: Sacred; Mass
!!!YEC: Copyright 2022 Narodowy Instytut Fryderyka Chopina (https://polishscores.org)
!!!YEM: License CC-BY-4.0 (https://creativecommons.org/licenses/by/4.0)
!!!SMS-siglum: PL-Kk
!!!SMS-shelfmark: Kk.I.389
!!!SMS-variant:
!!!SMS-altvar:
!!!SMS-shelfwork: 005-004 M
!!!NIFC-rismSourceID: 1001146182
!!!NIFC-rismChildID: 1001146646
!!!NIFC-islandoraID: pl-kk:6976
!!!URL-pdf-islandora: https://repozytorium.nifc.pl/islandora/object/pl-kk%3A6976/datastream/PDF/view
!!!URL-scan: https://polish.musicsources.pl/pl/lokalizacje/galeria/rekopisy/5999/1 @EN{Scan on Polish Music Sources Website} @PL{Skany w portalu Dziedzictwo Muzyki Polskiej w otwartym dostępie}
!!!IIIF:
!!!ONB-nifc: UWAGA: S – skan 9-10, A – 28-29 , T – 47-48 , B – 66-67 . Części Mszy: Rorate, Kyrie, Gloria, Graduale, Sanctus, Benedictus, Agnus.
!!!AIN: 1 alto 1 bass 1 soprn 1 tenor
!!!key:
**kern	**text	**kern	**text	**kern	**text	**kern	**text
*part4	*part4	*part3	*part3	*part2	*part2	*part1	*part1
*staff4	*staff4	*staff3	*staff3	*staff2	*staff2	*staff1	*staff1
*I"Basso.	*	*I"Tenore.	*	*I"Alto.	*	*I"Soprano.	*
*I'B	*	*I'T	*	*I'A	*	*I'S	*
*Ibass	*	*Itenor	*	*Ialto	*	*Isoprn	*
*ICvox	*	*ICvox	*	*ICvox	*	*ICvox	*
*clefF4	*	*clefC4	*	*clefC3	*	*clefC1	*
*k[]	*	*k[]	*	*k[]	*	*k[]	*
*C:	*	*C:	*	*C:	*	*C:	*
*M3/2	*	*M3/2	*	*M3/2	*	*M3/2	*
=1	=1	=1	=1	=1	=1	=1	=1
*2\right	*	*2\right	*	*2\right	*	*2\right	*
2c\	Al-	2e\	Al-	2e\	Al-	2g\	Al-
2c\	-le-	2e\	-le-	2e\	-le-	2g\	-le-
2A\	-lu-	4f#X\	-lu-	2f#X\	-lu-	2cc\	-lu-
.	.	4e\	.	.	.	.	.
=2	=2	=2	=2	=2	=2	=2	=2
1B	-ia,	1d#X	-ia	1f#X	-ia.	1b	-ia,
2E\	Al-	2e\	Al-	2g\	Al-	2b\	al-
=3	=3	=3	=3	=3	=3	=3	=3
2E\	-le-	1e	-le-	2g\	-le-	2b\	-le-
2B\	.	.	.	1f#X	-lu-	1b	-lu-
2BB/	-lu-	2d#X\	-lu-	.	.	.	.
=4	=4	=4	=4	=4	=4	=4	=4
1.E	-ia,	1.e	-ia,	1.g	-ia,	1.b	-ia,
=5	=5	=5	=5	=5	=5	=5	=5
2C/	Al-	2G/	Al-	2e\	Al-	2cc\	Al-
2E\	.	2G/	-le-	2e\	-le-	2cc\	-le-
2E\	-le-	2G/	-lu-	2e\	-lu-	2cc\	-lu-
=6	=6	=6	=6	=6	=6	=6	=6
2F\	-lu-	2A/	-ia	2fn\	-ia	1cc	-ia
2C\	.	2G/	.	2e\	.	.	.
2F\	-ia	2A/	Al-	2f\	Al-	2a\	al-
=7	=7	=7	=7	=7	=7	=7	=7
1F	Al-	1.G	.	1d	.	1b	-le-
2E\	.	.	.	2g\	.	2cc\	.
=8	=8	=8	=8	=8	=8	=8	=8
2F\	-le-	2A/	-le-	4f\	-le-	1cc	.
.	.	.	.	4e\	.	.	.
1G	-lu-	1G	-lu-	1d	-lu-	.	.
.	.	.	.	.	.	2b\	-lu-
!	!	!	!	!	!	!LO:LB:g=original	!
=9	=9	=9	=9	=9	=9	=9	=9
2C/	-ia	2G/	-ia	2e\	-ia,	2cc\	-ia
!	!	!LO:LB:g=original	!	!	!	!	!
2A\	al-	2A\	Al-	2e\	al-	2cc\	Al-
2E\	-le-	2G#X/	-le-	2e\	-le-	2b\	-le-
!LO:LB:g=original	!	!	!	!LO:LB:g=original	!	!	!
=10	=10	=10	=10	=10	=10	=10	=10
1.A	-lu-	1.A	-lu-	1.e	-lu-	1.cc	-lu-
=11	=11	=11	=11	=11	=11	=11	=11
1.E	-ia.	1.G#X	-ia	1.e	-ia.	1.b	-ia.
=12||	=12||	=12||	=12||	=12||	=12||	=12||	=12||
!LO:TX:a:t=1.	!	!LO:TX:a:t=1.	!	!LO:TX:a:t=1.	!	!	!
1.r	.	1.r	.	1.r	.	2ee\	A-
.	.	.	.	.	.	2ee\	-ve
.	.	.	.	.	.	2ee\	Ma-
=13	=13	=13	=13	=13	=13	=13	=13
2A\	A-	2c\	A-	2e\	A-	1cc	-ri-
2A\	-ve	2c\	-ve	2e\	-ve	.	.
2A\	ma-	2c\	ma-	2e\	Ma-	2cc\	-a
=14	=14	=14	=14	=14	=14	=14	=14
1F	-ri-	1A	-ri-	1f	-ri-	2.dd\	gra-
.	.	.	.	.	.	4dd\	-ti-
2F\	-a	2A\	-a	2f\	-a	2dd\	-a
=15	=15	=15	=15	=15	=15	=15	=15
2.G\	gra-	2.B\	gra-	2.d\	gra-	1b	ple-
4G\	-ti-	4B\	-ti-	4d\	-ti-	.	.
2G\	-a	2B\	-a	2d\	-a	2b\	-na
=16	=16	=16	=16	=16	=16	=16	=16
1E	ple-	1G	ple-	1e	ple-	2.cc\	Do-
.	.	.	.	.	.	4cc\	-mi-
2E\	-na	2G/	-na	2e\	-na	2cc\	-nus
!	!	!	!	!	!	!LO:PB:g=original	!
=17	=17	=17	=17	=17	=17	=17	=17
2.F\	Do-	2.A\	Do-	2.c/	Do-	1a	te-
4F\	-mi-	4A\	-mi-	4c/	-mi-	.	.
2E\	-nus	2A\	-nus	2c/	-nus	2a\	-cum
=18	=18	=18	=18	=18	=18	=18	=18
2.D\	Do-	2.d\	Do-	2.f\	Do-	2.b\	Do-
4D\	-mi-	4d\	-mi-	4f\	-mi-	4b\	-mi-
2C\	-nus	2e\	-nus	2e\	-nus,	2cc\	-nus
!	!	!LO:LB:g=original	!	!	!	!	!
=19	=19	=19	=19	=19	=19	=19	=19
2F\	te-	2A/	te-	1.d	te-	1cc	te-
2G\	.	1G	.	.	.	.	.
2GG/	.	.	.	.	.	2b\	.
=20	=20	=20	=20	=20	=20	=20	=20
2C/	-cum	2G/	-cum	2e\	-cum	2cc\	-cum
!LO:LB:g=original	!	!	!	!LO:LB:g=original	!	!	!
2c\	al-	2c\	Al-	4g\	Al-	2ee\	al-
.	.	.	.	4a\	.	.	.
2G\	-le-	2B\	-le-	4g\	-le-	2dd\	-le-
.	.	.	.	4f\	.	.	.
=21	=21	=21	=21	=21	=21	=21	=21
2A\	-lu-	2c\	-lu-	2e\	-lu-	2cc\	-lu-
2F\	-ia	1A	-ia	4f\	-ia,	2dd\	.
.	.	.	.	4g\	al-	.	.
2D\	al-	.	.	4f\	.	2a\	-ia
.	.	.	.	4e\	-le-	.	.
=22	=22	=22	=22	=22	=22	=22	=22
4G\	-le-	4B\	Al-	1d	-lu-	1b	al-
4A\	.	4c\	.	.	.	.	.
4G\	.	4B\	.	.	.	.	.
4F\	-lu-	4A\	.	.	.	.	.
2E\	-ia	2G/	.	2e\	-ia	2cc\	.
=23	=23	=23	=23	=23	=23	=23	=23
2F\	al-	2A/	-le-	2d\	al-	1cc	-le-
2G\	-le-	1G	-lu-	2d\	-le-	.	.
2GG/	-lu-	.	.	2d\	-lu-	2b\	-lu-
=24	=24	=24	=24	=24	=24	=24	=24
0.C	-ia.	0.G	-ia.	0.e	-ia.	0.cc	-ia.
=25	=25	=25	=25	=25	=25	=25	=25
==	==	==	==	==	==	==	==
*-	*-	*-	*-	*-	*-	*-	*-
!!!system-decoration: [(s1,s2,s3,s4)]
!!!ENC: Andrzej Gręziak
!!!END: 2024-04-10
!!!ENC: Leszek Kubiak
!!!END: 2024-06-28
